X:1
T:Aroplane d'Erce A
E:12
Z:Roger Ngaret (94-95)
R:aeroplane
C:Trad.
S:
A:Bretagne
M:2/4
L:1/16
K:G
Q:1/4=100
"G"DDDG B2A2 | GGGB D4 | "D"E2E2 F2EF |1 A2G2 "G"G4 :|2\
"D"A2FE "G"D4 |: dddd BBBd | edcB "D"c2A2 | c2e2 AAAc |1\
e2d2 "G"B4 :|2 "D"e2d2 "G"G4 |]
